packages/icons/src/lib/svgs/checkmark.svg

<svg width="18" height="18" viewBox="0 0 18 18" fill="currentColor" xmlns="http://www.w3.org/2000/svg">
<path fill-rule="evenodd" clip-rule="evenodd" d="M9 18C13.9706 18 18 13.9706 18 9C18 4.02944 13.9706 0 9 0C4.02944 0 0 4.02944 0 9C0 13.9706 4.02944 18 9 18ZM13.8398 4.65446L14.7872 5.60183C14.952 5.76659 14.952 6.09611 14.7872 6.30206L11.2243 9.8238L7.66133 13.3455C7.45538 13.5515 7.16705 13.5515 6.9611 13.3455L3.21282 9.55606C3.04806 9.3913 3.04806 9.06179 3.21282 8.85584L4.16019 7.94966C4.36614 7.74371 4.65447 7.74371 4.86042 7.94966L7.33181 10.4211L13.1396 4.65446C13.3455 4.44851 13.6751 4.44851 13.8398 4.65446Z"/>
</svg>

<svg width="18" height="18" fill="currentColor" xmlns="http://www.w3.org/2000/svg"><path fill-rule="evenodd" clip-rule="evenodd" d="M9 18A9 9 0 109 0a9 9 0 000 18zm4.84-13.346l.947.948c.165.165.165.494 0 .7l-3.563 3.522-3.563 3.521a.474.474 0 01-.7 0L3.213 9.556c-.165-.165-.165-.494 0-.7l.947-.906a.474.474 0 01.7 0l2.472 2.471 5.808-5.767c.205-.205.535-.205.7 0z"/></svg>
